X:520
T:The Jolly Bishop of Cleeve
C:Jill Lawrence, 1979.  Chords (not too convincing) by Colin Hume, 2022.
L:1/8
M:6/8
R:Jig
S:Colin Hume's website,  colinhume.com  - chords can also be printed below the stave.
Q:3/8=112
K:G
P:A
|: B | "C"dee e2e | "G"d2B G2G | "G"GBd g2g | "D"f2e d2d |\
"C"dee e2e | "G"d2B G2G |1 "A7"AAA A2B | "D"A3 "D7"A2 :|2 "Am"AAA "D7"B2A | "G"G3 G2 ||
P:B
|: G | "Am"AAA "/G"A2B | "D/F#"cdc "Em"B3 | "G"BBB "/F#"B2^c | "E7"ded "A"^c2c |\
"D"ded "G"d2B | "D7"ABA "Em"G2G | "D7"D2D DEF | "G"G3- G2 :|

